X: 1
T:Morrison's Jig
M:6/8
L:1/8
Q:160
C:Traditional Arr. Diekoff
R:Jig
N:Third in set with "Toss The Feathers" and "Ten Penny Bit"
Z:Donna Diekoff
K:D
|:"Em"E{F}E{D}E BEB|"Em"E{F}E{D}E "D"AFD|"Em"E{F}E{D}E BEB|"G"dcB "D"AFD
|!
"Em"E{F}E{D}E BEB|"Em"E{F}E{D}E "D"AFD|"G"G2 G FGA|1"D"dAG FED:|2"D"dAG
FGA|!
| "Em"Bee fee|"Em"aee fed|"Em"Bee fee|"D"a2g fed|!
"Em"Bee fee|"Em"aee fee|"G"gfe "D"d2A|"Em"BAG "D"FGA|!
"Em"Bee fee|"Em"aee fed|"Em"Bee fee|"D"faf def|!
"G"g2 g gfe|"D"def "G"g2 d|"Em"edc "D"d2 A|"Em"BAG "D"FED||
% Output from ABC2Win  Version 2.1  on 2/11/98
